rospo-icon-theme-classic-common/16x16/mimetypes/qgis-qpt.svg

<svg height="16" viewBox="0 0 16 16" width="16" xmlns="http://www.w3.org/2000/svg"><rect fill="#e4e4e4" height="16" rx="1" transform="matrix(0 -1 -1 0 0 0)" width="16" x="-16" y="-16"/><path d="m1 16c-.554 0-1-.446-1-1v-1c0 .554.446 1 1 1h14c .554 0 1-.446 1-1v1c0 .554-.446 1-1 1z" opacity=".2"/><g fill-rule="evenodd"><path d="m .8 16 7.2-7.2 7.2 7.2z" fill="#707070"/><path d="m16 15.2-7.2-7.2 7.2-7.2z" fill="#9f9f9f"/><path d="m8.707 7.293-1.414 1.414 7.293 7.293h.414c.554 0 1-.446 1-1v-.414z" fill="#fff"/><path d="m14.586 0-14.586 14.586v.414c0 .554.446 1 1 1h .4141l14.586-14.586v-.414c0-.554-.446-1-1-1h-.414z" fill="#fff"/></g></svg>

<svg xmlns="http://www.w3.org/2000/svg" width="16" height="16" version="1.1" viewBox="0 0 16 16">
 <rect width="16" height="16" x="-16" y="-16" rx="1" ry="1" transform="matrix(0,-1,-1,0,0,0)" style="fill:#cccccc"/>
 <path style="opacity:0.2" d="M 1,16 C 0.446,16 0,15.554 0,15 l 0,-1 c 0,0.554 0.446,1 1,1 l 14,0 c 0.554,0 1,-0.446 1,-1 l 0,1 c 0,0.554 -0.446,1 -1,1 L 1,16 Z"/>
 <path style="fill:#707070;fill-rule:evenodd" d="M 0.8,16 8,8.8 15.2,16 Z"/>
 <path d="M 16,15.2 8.8,8 16,0.8 Z" style="fill:#9f9f9f;fill-rule:evenodd"/>
 <path d="M 8.707,7.293 7.293,8.707 14.586,16 15,16 c 0.554,0 1,-0.446 1,-1 L 16,14.586 8.707,7.293 Z" style="fill:#ffffff;fill-rule:evenodd"/>
 <path style="fill:#ffffff;fill-rule:evenodd" d="M 14.586,0 0,14.586 0,15 c 0,0.554 0.446,1 1,1 l 0.4141,0 14.586,-14.586 0,-0.414 c 0,-0.554 -0.446,-1 -1,-1 l -0.414,0 z"/>
</svg>
